tools/download-figma-icons/icons/outlined-medium/stopwatch.svg

<svg width="24" height="24" viewBox="0 0 24 24" fill="none" xmlns="http://www.w3.org/2000/svg">
<path fill-rule="evenodd" clip-rule="evenodd" d="M16.7742 20.2703L17.1297 20.8853C18.0087 20.2733 18.7722 19.5091 19.385 18.6301L18.77 18.2753C18.4107 18.0676 18.2877 17.6093 18.4947 17.2501C18.7017 16.8923 19.1607 16.7686 19.52 16.9756L20.1327 17.3296C20.5812 16.3808 20.8707 15.3443 20.9615 14.2501H20.2497C19.835 14.2501 19.4997 13.9148 19.4997 13.5001C19.4997 13.0861 19.835 12.7501 20.2497 12.7501H20.9615C20.8707 11.6558 20.5812 10.6193 20.1327 9.6713L19.52 10.0253C19.4015 10.0928 19.2725 10.1251 19.1457 10.1251C18.8862 10.1251 18.6342 9.9908 18.4947 9.75005C18.2877 9.39155 18.4107 8.93255 18.77 8.72555L19.385 8.37005C18.7722 7.4918 18.0087 6.72755 17.1297 6.11555L16.7742 6.73055C16.6355 6.97055 16.3835 7.10555 16.124 7.10555C15.9965 7.10555 15.8675 7.0733 15.7497 7.00505C15.3912 6.79805 15.2682 6.33905 15.4752 5.98055L15.8292 5.3678C14.8805 4.9193 13.844 4.62906 12.7497 4.5383V5.25005C12.7497 5.6648 12.4145 6.00005 11.9997 6.00005C11.585 6.00005 11.2497 5.6648 11.2497 5.25005V4.5383C10.1555 4.62906 9.119 4.9193 8.171 5.3678L8.52425 5.98055C8.732 6.33905 8.609 6.79805 8.24975 7.00505C8.132 7.0733 8.003 7.10555 7.87549 7.10555C7.616 7.10555 7.364 6.97055 7.22525 6.73055L6.86975 6.11555C5.99075 6.72755 5.22725 7.4918 4.6145 8.37005L5.23025 8.72555C5.58875 8.93255 5.71175 9.39155 5.50475 9.75005C5.36525 9.9908 5.114 10.1251 4.8545 10.1251C4.727 10.1251 4.598 10.0928 4.48025 10.0253L3.86675 9.6713C3.419 10.6193 3.12875 11.6558 3.038 12.7501H3.74975C4.1645 12.7501 4.49975 13.0861 4.49975 13.5001C4.49975 13.9148 4.1645 14.2501 3.74975 14.2501H3.038C3.12875 15.3443 3.419 16.3808 3.86675 17.3296L4.48025 16.9756C4.8365 16.7686 5.29775 16.8923 5.50475 17.2501C5.71175 17.6093 5.58875 18.0676 5.23025 18.2753L4.6145 18.6301C5.22725 19.5091 5.99075 20.2733 6.86975 20.8853L7.22525 20.2703C7.4315 19.9111 7.89125 19.7873 8.24975 19.9951C8.609 20.2028 8.732 20.6611 8.52425 21.0203L8.171 21.6331C9.119 22.0816 10.1555 22.3711 11.2497 22.4626V21.7501C11.2497 21.3361 11.585 21.0001 11.9997 21.0001C12.4145 21.0001 12.7497 21.3361 12.7497 21.7501V22.4626C13.844 22.3711 14.8805 22.0816 15.8292 21.6331L15.4752 21.0203C15.2682 20.6611 15.3912 20.2028 15.7497 19.9951C16.1075 19.7873 16.5665 19.9111 16.7742 20.2703ZM21.2195 5.78025L20.9998 5.5605L19.9265 6.6345C21.524 8.47725 22.4998 10.8743 22.4998 13.5C22.4998 19.29 17.7898 24 11.9998 24C6.20976 24 1.49976 19.29 1.49976 13.5C1.49976 7.96125 5.81376 3.4215 11.2573 3.0375C11.2569 3.03157 11.2553 3.02597 11.2536 3.02031C11.2517 3.0138 11.2498 3.00722 11.2498 3V1.5H9.74976C9.33501 1.5 8.99976 1.16475 8.99976 0.75C8.99976 0.336 9.33501 0 9.74976 0H14.2498C14.6645 0 14.9998 0.336 14.9998 0.75C14.9998 1.16475 14.6645 1.5 14.2498 1.5H12.7498V3C12.7498 3.00722 12.7478 3.0138 12.7459 3.02031C12.7443 3.02597 12.7426 3.03157 12.7423 3.0375C15.0763 3.2025 17.1988 4.128 18.8653 5.574L19.9393 4.5L19.7195 4.28025C19.427 3.98775 19.427 3.513 19.7195 3.21975C20.0128 2.92725 20.4875 2.92725 20.78 3.21975L22.28 4.71975C22.5733 5.013 22.5733 5.48775 22.28 5.78025C22.1338 5.92725 21.9418 6 21.7498 6C21.5578 6 21.3658 5.92725 21.2195 5.78025ZM13.2921 12.7502H15.7499C16.1646 12.7502 16.4999 13.0855 16.4999 13.5002C16.4999 13.915 16.1646 14.2502 15.7499 14.2502H13.2921C13.0319 14.6972 12.5534 15.0002 11.9999 15.0002C11.1719 15.0002 10.4999 14.3282 10.4999 13.5002C10.4999 12.9467 10.8029 12.4682 11.2499 12.208V8.25024C11.2499 7.83549 11.5851 7.50024 11.9999 7.50024C12.4146 7.50024 12.7499 7.83549 12.7499 8.25024V12.208C12.9749 12.3392 13.1609 12.5252 13.2921 12.7502Z" fill="black"/>
</svg>

<svg width="24" height="24" viewBox="0 0 24 24" fill="none" xmlns="http://www.w3.org/2000/svg"><path fill-rule="evenodd" clip-rule="evenodd" d="m16.774 20.27.356.615a9.064 9.064 0 0 0 2.255-2.255l-.615-.355a.75.75 0 1 1 .75-1.3l.613.355a8.918 8.918 0 0 0 .829-3.08h-.712a.75.75 0 1 1 0-1.5h.712a8.908 8.908 0 0 0-.83-3.079l-.612.354a.755.755 0 0 1-1.025-.275.75.75 0 0 1 .275-1.024l.615-.356a9.074 9.074 0 0 0-2.255-2.254l-.356.615a.75.75 0 0 1-1.299-.75l.354-.613a8.916 8.916 0 0 0-3.08-.83v.712a.75.75 0 1 1-1.5 0v-.712a8.908 8.908 0 0 0-3.078.83l.353.613a.749.749 0 1 1-1.299.75l-.355-.615A9.073 9.073 0 0 0 4.614 8.37l.616.356a.75.75 0 0 1-.75 1.3l-.613-.355a8.924 8.924 0 0 0-.829 3.08h.712a.75.75 0 1 1 0 1.5h-.712c.09 1.093.381 2.13.829 3.079l.613-.354a.751.751 0 0 1 .75 1.3l-.616.354a9.063 9.063 0 0 0 2.256 2.255l.355-.615a.749.749 0 1 1 1.3.75l-.354.613a8.925 8.925 0 0 0 3.079.83v-.713a.75.75 0 1 1 1.5 0v.713a8.933 8.933 0 0 0 3.08-.83l-.355-.613a.751.751 0 0 1 1.3-.75ZM21.22 5.78 21 5.56l-1.072 1.075A10.449 10.449 0 0 1 22.5 13.5C22.5 19.29 17.79 24 12 24S1.5 19.29 1.5 13.5c0-5.539 4.314-10.079 9.757-10.463a.078.078 0 0 0-.003-.017.072.072 0 0 1-.004-.02V1.5h-1.5a.75.75 0 1 1 0-1.5h4.5a.75.75 0 1 1 0 1.5h-1.5V3a.065.065 0 0 1-.004.02l-.004.018a10.443 10.443 0 0 1 6.123 2.536L19.94 4.5l-.22-.22a.75.75 0 0 1 1.061-1.06l1.5 1.5a.75.75 0 1 1-1.06 1.06Zm-7.927 6.97h2.458a.75.75 0 1 1 0 1.5h-2.458c-.26.447-.739.75-1.292.75a1.5 1.5 0 0 1-1.5-1.5c0-.553.303-1.032.75-1.292V8.25a.75.75 0 1 1 1.5 0v3.958c.225.131.41.317.542.542Z" fill="currentColor"/></svg>
